X:1
T:Trio No. 3 Op. 39
T:No. 3 & 4
T:Trios No. 3 & 4 
T:Josef Renner jun. (1868-1934)
T:from "12 Organ Trios" Op. 39, arr. for Flute, Violin and Cello
T:Arrangement by Felix Scharpf
T:Regensburg Cathedral
T:twoflutes 2019 / Felix Scharpf / https://commons.wikimedia.org/wiki/File:Portal_st_peter_regensburg.JPG
T:twoflutes 2019 / Felix Scharpf / https://commons.wikimedia.org/wiki/File:Portal_st_peter_regensburg.JPG
T:twoflutes 2019 / Felix Scharpf / https://commons.wikimedia.org/wiki/File:Portal_st_peter_regensburg.JPG
T:twoflutes 2019 / Felix Scharpf / https://commons.wikimedia.org/wiki/File:Portal_st_peter_regensburg.JPG
T:twoflutes 2019 / Felix Scharpf / https://commons.wikimedia.org/wiki/File:Portal_st_peter_regensburg.JPG
C:Josef Renner jun. (1868-1934)
Z:twoflutes 2019 / Felix Scharpf / https://commons.wikimedia.org/wiki/File:Portal_st_peter_regensburg.JPG
%%score [ 1 2 3 ]
L:1/8
Q:1/4=100
M:3/4
K:F
V:1 treble nm="Flute" snm="Fl."
V:2 treble nm="Violin" snm="Vl."
V:3 bass nm="Cello" snm="Vc."
V:1
"^Trio III Andante"!mf! (Ad | fg f e2 d- | d=B c2 ^c2) | (d^d e4- | e g2 f) ga | (bc'ba ^g2) | %6
!mp! (gbaeag- | g)(eg^fef) | (adagab- | b)(d'c'bag) | (^gbaf=ga- | a)c'(bagf) | (^fag_e=fg- | %13
 g)(baeag) | f(ed^c d2- | d)(fe=Bed- | d=B ^c2) z2 |!mp! (A2 G2 F2 | E3) (^D EA | B3 A Bc | %20
 B2 A2) (Bc | d4 fe | d2 ^c3) (A | c2 a2) (d>c) | (c2 B2) (d2 | _e6 | c4) (^c2 | d6 | B4) (=B2 | %29
 c2 ^c4 | d2)"_dim." (F3 G | A2 ^G2 =GF | E3) (B A^C |!p! D6- | %34
 D3)[Q:1/4=80] (^C[Q:1/4=70] D[Q:1/4=60]E |!p! !fermata!^F6) |] %36
[K:G][M:4/4]"^Trio IV Canon Moderato"[Q:1/4=120] z!mf! (dBd- dcBA | B2) (gf e3 f) | (^dfba gBga) | %39
 (f2 ^d2 e3 f) | (^dB^AB cg c'2- | c'2 ba) (a3 g) | (=fefg fcfe) | (d3 B c3) c | (Bd =f2- feaf) | %45
 (e3 d) (d2 c)(a | gag=f- f^dec') | (b3 ^a/b/ c'3 =a) | (gd^cd e=cAf | g2) z4 z2 | z (dBd aAdc | %51
 B2) (a3 e f2 | g)(GAB cBcd | B2) (cd e2 F2 | G)(^GAB c^cd=c | B2) (d2 E3 F) | (AGcB dcB^A) | %57
 (B2 d2 =f4- | f)(dcB dGAB | c2 e2 F3 E/F/[Q:1/4=100][Q:1/4=80][Q:1/4=60] | G8) |] %61
V:2
 z2 |!mf! (A2 G2 F2 | E3) (^D EA | B3 A Bc | B2 A2) (Bc | d4 fe | d2 ^c3) (A | c2 a2) (d>c) | %8
 (c2 B2) (d2 | _e6 | c4) (^c2 | d6 | B4) (=B2 | c2 ^c4 | d2) (F3 G | A2 ^G2 =GF | E4)!mf! (Ad | %17
 fg f e2 d- | d=B c2 ^c2) | (d^d e4- | e g2 f g(a) | bc'ba ^g2) | (gbaeag- | g)(eg^fef) | %24
 (adagab- | b)(d'c'bag) | (^gbaf=ga- | a)(c'bagf) | (^fag_e=fg- | g)(baeag) | (fed^c d2- | %31
 d)"_dim."(fe=Bed- | d=B ^c2 G2 | F2) (EFGA | c2 B4 |!p! !fermata!A6) |][K:G][M:4/4] z8 | %37
 z!mf! (dBd- dcBA | B2) (gf e3 f) | (^dfba gBga) | (f2 ^d2 e3 f) | (^dB^AB cg c'2- | %42
 c'2 ba) (a3 g) | (=fefg fcfe) | (d3 B c3) c | (Bd =f2- feaf) | (e3 d) (d2 c)(a | gag=f- f^dec') | %48
 (b3 ^a/b/ c'3 =a) | (gd^cd e=cAf | g2) z4 z2 | z (dBd aAdc | B2) (g3 e f2 | g)(GAB cBcd | %54
 B2) (cd e2 F2 | G)(^GAB c^cd=c) | (B2 d2 E3 F) | (AGcB dcB^A) | (B2 d2 =f4- | f)(edc- cAdc | %60
 B8) |] %61
V:3
 z2 |!mp! D6 | (A,6 | G,6 | F,6) | (B,6 | A,6) | D6 | G,6 | C6 | F6 | B,6 | _E6 | (A,6 | B,6) | %15
 A,6- | A,4 z2 | D6 | (A,6 | G,6) | F,6 | B,6 | A,6 | D6 | G,6 | C6 | F6 | B,6 | _E6 | A,6 | B,6 | %31
"_dim." A,6- | A,6 |!p! D,6- | D,6- |!p! !fermata!D,6 |][K:G][M:4/4]!mf! (G,4 F,4 | G,4) (C,4 | %38
 B,,4) E,4 | B,4 B,,4 | (A,4 G,4 | F,4 E,4 | D,4 C,4) | (G,4 A,4) | A,,4 (A,4 | ^G,4 A,4 | %46
 B,4 C4) | G,4 C,4 | D,4 D4 | G,4 G,,4 | (G,4 F,4 | G,4) D,4 | (G,4 A,4) | (E,4 D,4) | D4 D,4- | %55
 D,4 D4 | G,4 G,,4- | G,,4 G,4- | G,4 G,,4- | G,,4 G,4 | G,,8 |] %61

